X:1
T:Li'l Liza Jane
C:Countess Ada DeLachau(1916)
M:4/4
L:1/4
F:https://www.youtube.com/watch?v=9P_ZVQCA5lI
Q:1/4=180
K:Fmaj
"F" A/A/ F G F | A FGF|Ac2A| "C" c4|
w:I've got a gal an' you got none | Li'l Liz-a Jane,
"F" A/A/ F G F | A FG2|"C7"AA2G|"F"F3z|
w:I'se got a gal an' you got none Li'l Liz-a Jane.
"F" (f3 c)|"Bb"d2"F"c2|"F"Ac2A|"C"c2z2|
w:Oh lil' Liz-a Li'l Liz-a Jane.
"F" (f3 c)|"Bb"d2"F"c2|"C7"AA2G|"F"F3z|
w:Oh lil' Liz-a Li'l Liz-a Jane.